X:1
T:Bach Cello Suite No.1
T:Bach Cello Suite No.1
T:J.S.Bach
C:J.S.Bach
%%score ( 1 2 )
L:1/8
Q:1/4=70
M:4/4
K:D
V:1 treble nm="Flauta de bisel tenor"
V:2 treble 
V:1
!p!"^Prélude" (D/A/f/).e/ .f/.A/.f/.A/ (D/A/f/).e/ .f/.A/.f/.A/ | %1
"_cresc." (D/B/g/).f/ .g/.B/.g/.B/ (D/B/g/).f/ .g/.B/.g/.B/ | %2
 (D/c/g/).f/ .g/.c/.g/.c/ (D/c/g/).f/ .g/.c/.g/.c/ | %3
 (D/d/f/).e/ .f/.d/.f/.d/ (D/d/f/).e/ .f/.d/.f/.c/ | %4
!f! (D/B/f/).e/ .f/.d/.c/.d/ .B/.d/.c/.d/ .F/.A/.^G/.F/ | %5
!p! (^G/d/e/).d/ .e/.d/.e/.d/ (G/d/e/).d/ .e/.d/.e/.d/ | %6
!f! (c/e/a/).^g/ .a/.e/.d/.e/ .c/.e/.d/.e/ .A/.c/.B/.A/ | %7
!p! (B/F/d/).c/ .d/.F/.d/.F/ (B/F/d/).c/ .d/.F/.d/.F/ | %8
!f! (B/^G/A/).B/ .A/.G/.F/.E/ (d/c/B/).a/ .^g/.f/.e/.d/ | %9
"_dim." (c/B/A/).a/ .e/.a/.c/.e/ (A/B/c/).e/ .d/.c/.B/.A/ | %10
!p! (^d/!<(!A/=c/).B/ .c/.A/.d/.A/ (f/A/!courtesy!=c/).B/ .c/.A/.!courtesy!^d/.A/!<)! | %11
!sfz! (G/B/e/).f/ .g/.e/.B/.A/!>(! (G/B/e/).f/ .g/.e/.c/.B/!>)! | %12
!p! (^A/!<(!!courtesy!^c/A/).c/ .e/.c/.e/.c/ (!courtesy!^A/c/A/).c/ .e/.c/.e/.c/!<)! | %13
!sfz! (d/c/B/).d/ .c/.d/.e/.c/!>(! (d/c/B/).=A/ .G/.F/.E/.D/!>)! | %14
!p! (C/G/A/).G/ .A/.G/.A/.G/ (C/G/A/).G/ .A/.G/.A/.G/ | %15
"_cresc." (D/F/=c/).B/ .c/.F/.c/.F/ (D/F/c/).B/ .c/.F/.c/.F/ | %16
 (D/G/B/).A/ .B/.G/.B/.G/ (D/G/B/).A/ .B/.G/.B/.G/ | %17
 (D/c/g/).f/ .g/.c/.g/.c/ (D/c/g/).f/ .g/.c/.g/.c/ | %18
!f! (D/A/f/).e/!>(! .f/.d/.c/.B/ .A/.G/.F/.E/ .d/.c/.B/.A/!>)! | %19
"_cresc." (^G/E/B/).c/ .d/.B/.c/.d/ (G/E/B/).c/ .d/.B/.c/.d/ | %20
 (=G/E/A/).B/ .c/.A/.B/.c/ (G/E/A/).B/ .c/.A/.B/.c/ | %21
!f! (G/E/A/).c/ !>!e/!>!^g<!>(!!>!!fermata!a!>)!!p! .E/.F/.G/ .A/.B/.c/.d/ | %22
!<(! (!>!e/c/A/).B/ .c/.d/.e/.f/ (!>!g/e/c/).d/ .e/.f/.g/.a/!<)! | %23
!sfz! (!>!_b/!>(!a/^g/).a/ (!>!a/=g/f/g/) (g/e/c/).=B/ .A/.E/.F/.G/!>)! | %24
!mf! (!>!A/"_cresc."E/A/).c/ .e/.f/.g/.e/ (f/d/A/).G/ .F/.D/.E/.F/ | %25
!<(! (!>!A/D/F/).A/ .d/.e/.f/.d/!<)!!f! (!>!^g/=f/e/f/) (!>!f/e/^d/e/) | %26
 (!>!e/=d/c/d/) (B/A/).^G/.F/ (E/G/B/).d/ .e/.^g/.a/.g/ | %27
 (a/e/c/).B/ .c/.e/.A/.c/ (E/A/^G/).f/ .e/.d/.c/.B/ |!f! .A(=g/f/ e/d/c/B/ !>!A/)(g/f/e/ d/c/B/A/ | %29
"_dim." !>!=G/)(f/e/d/ c/B/A/G/ !>!F/)(e/d/c/ B/A/G/F/ | %30
 E/)(d/c/B/ c/e/)!p!A/e/ B/e/c/e/ d/e/B/e/ | !>!c/e/A/e/ d/e/B/e/ !>!c/e/A/e/ d/e/B/e/ | %32
"_cresc." c/e/A/e/ B/e/c/e/ x/ e/x/e/ x/ e/x/e/ | x/ e/x/e/ x/ e/x/e/ x/ e/x/e/ x/ e/x/e/ | %34
!mf! x/ e/x/e/ x/ e/x/e/ x/ e/x/e/ x/ e/x/e/ |"_dim." x/ e/x/e/ x/ e/x/e/ d/e/c/e/ d/e/B/e/ | %36
!p! c/e/(A/B/"_cresc." =c/).A/.^c/.A/ .d/.A/.^d/.A/ .e/.A/.=f/.A/ | %37
!<(! .^f/.A/.g/.A/ .^g/.A/.a/.A/ ._b/.A/.=b/.A/ .=c'/.A/.^c'/.A/!<)! | %38
!f! (d'/f/A/).f/ .d'/.f/.d'/.f/ (d'/f/A/).f/ .d'/.f/.d'/.f/ | %39
 (d'/e/A/)e/ .d'/.e/.d'/.e/ (d'/e/A/)e/ .d'/.e/.d'/.e/ | %40
[Q:1/4=70]"_rallent." (c'/[Q:1/4=68]"^.8"g/[Q:1/4=67]"^.5"A/)[Q:1/4=66]"^.3".g/[Q:1/4=65] .c'/[Q:1/4=63]"^.8".g/[Q:1/4=62]"^.5".c'/[Q:1/4=61]"^.3".g/[Q:1/4=60] (c'/[Q:1/4=58]"^.8"g/[Q:1/4=57]"^.5"A/)[Q:1/4=56]"^.3".g/[Q:1/4=55] .c'/[Q:1/4=53]"^.8".g/[Q:1/4=52]"^.5".c'/[Q:1/4=51]"^.3".g/ | %41
!ff![Q:1/4=50] !fermata!d'8 |] %42
V:2
 x8 | x8 | x8 | x8 | x8 | x8 | x8 | x8 | x8 | x8 | x8 | x8 | x8 | x8 | x8 | x8 | x8 | x8 | x8 | %19
 x8 | x8 | x8 | x8 | x8 | x8 | x8 | x8 | x8 | x8 | x8 | x8 | x8 | x4 !>!d/x/e/ x/ f/x/A/ x/ | %33
 !>!e/x/f/ x/ g/x/A/ x/ f/x/g/ x/ a/x/f/ x/ | g/x/f/ x/ g/x/e/ x/ f/x/e/ x/ f/x/d/ x/ | %35
 e/x/d/ x/ e/x/c/ x9/2 | x8 | x8 | x8 | x8 | x8 | x8 |] %42

